svgs/comdirect_phototan.svg

<?xml version="1.0" encoding="UTF-8" standalone="no"?>
<!-- Created with Inkscape (http://www.inkscape.org/) -->

<svg
   version="1.1"
   id="svg2"
   width="192"
   height="192"
   viewBox="0 0 192 192"
   sodipodi:docname="comdirect_phototan.svg"
   inkscape:export-filename="comdirect_phototan.svg"
   inkscape:export-xdpi="96"
   inkscape:export-ydpi="96"
   inkscape:version="1.2.1 (9c6d41e410, 2022-07-14)"
   xmlns:inkscape="http://www.inkscape.org/namespaces/inkscape"
   xmlns:sodipodi="http://sodipodi.sourceforge.net/DTD/sodipodi-0.dtd"
   xmlns="http://www.w3.org/2000/svg"
   xmlns:svg="http://www.w3.org/2000/svg">
  <defs
     id="defs6" />
  <sodipodi:namedview
     id="namedview4"
     pagecolor="#ffffff"
     bordercolor="#000000"
     borderopacity="0.25"
     inkscape:showpageshadow="2"
     inkscape:pageopacity="0.0"
     inkscape:pagecheckerboard="0"
     inkscape:deskcolor="#d1d1d1"
     showgrid="false"
     inkscape:zoom="3.4766084"
     inkscape:cx="127.85449"
     inkscape:cy="96.358277"
     inkscape:window-width="1920"
     inkscape:window-height="1099"
     inkscape:window-x="0"
     inkscape:window-y="0"
     inkscape:window-maximized="1"
     inkscape:current-layer="g8" />
  <g
     inkscape:groupmode="layer"
     inkscape:label="Image"
     id="g8">
    <path
       id="rect291-6-7-3-6-6"
       style="fill-opacity:0;stroke:#000000;stroke-width:8;stroke-linecap:round;stroke-linejoin:round;stroke-miterlimit:6;stroke-dasharray:none;paint-order:stroke fill markers"
       d="m 88.107193,155.6342 h 16.223587 v 16.22359 H 88.107193 Z" />
    <path
       id="rect291-6-7-0"
       style="fill-opacity:0;stroke:#000000;stroke-width:8;stroke-linecap:round;stroke-linejoin:round;stroke-miterlimit:6;stroke-dasharray:none;paint-order:stroke fill markers"
       d="m 155.21481,155.6342 h 16.22359 v 16.22359 h -16.22359 z" />
    <path
       id="rect291-3-5-6"
       style="fill-opacity:0;stroke:#000000;stroke-width:8;stroke-linecap:round;stroke-linejoin:round;stroke-miterlimit:6;stroke-dasharray:none;paint-order:stroke fill markers"
       d="m 121.6852,155.6342 h 16.22359 v 16.22359 H 121.6852 Z" />
    <path
       id="rect291-6-7-3-9"
       style="fill-opacity:0;stroke:#000000;stroke-width:8;stroke-linecap:round;stroke-linejoin:round;stroke-miterlimit:6;stroke-dasharray:none;paint-order:stroke fill markers"
       d="m 155.21481,121.96919 h 16.22359 v 16.22359 h -16.22359 z" />
    <path
       id="rect291-6-7-3-6-2-1-0"
       style="fill-opacity:0;stroke:#000000;stroke-width:8;stroke-linecap:round;stroke-linejoin:round;stroke-miterlimit:6;stroke-dasharray:none;paint-order:stroke fill markers"
       d="M 20.898195,155.63452 H 37.12178 v 16.22359 H 20.898195 Z" />
    <path
       id="rect291-6-7-3-6-2-7"
       style="fill-opacity:0;stroke:#000000;stroke-width:8;stroke-linecap:round;stroke-linejoin:round;stroke-miterlimit:6;stroke-dasharray:none;paint-order:stroke fill markers"
       d="M 20.898195,87.955193 H 37.12178 V 104.17878 H 20.898195 Z" />
    <path
       id="rect291-6-7-3-6-2-1"
       style="fill-opacity:0;stroke:#000000;stroke-width:8;stroke-linecap:round;stroke-linejoin:round;stroke-miterlimit:6;stroke-dasharray:none;paint-order:stroke fill markers"
       d="M 20.898195,121.96919 H 37.12178 v 16.22359 H 20.898195 Z" />
    <path
       id="rect291-6-7-3-6-2"
       style="fill-opacity:0;stroke:#000000;stroke-width:8;stroke-linecap:round;stroke-linejoin:round;stroke-miterlimit:6;stroke-dasharray:none;paint-order:stroke fill markers"
       d="M 20.898195,54.090195 H 37.12178 V 70.31378 H 20.898195 Z" />
    <path
       id="rect291-6-7"
       style="fill-opacity:0;stroke:#000000;stroke-width:8;stroke-linecap:round;stroke-linejoin:round;stroke-miterlimit:6;stroke-dasharray:none;paint-order:stroke fill markers"
       d="M 155.21481,54.090195 H 171.4384 V 70.31378 h -16.22359 z" />
    <path
       id="rect291-6"
       style="fill-opacity:0;stroke:#000000;stroke-width:8;stroke-linecap:round;stroke-linejoin:round;stroke-miterlimit:6;stroke-dasharray:none;paint-order:stroke fill markers"
       d="m 155.56183,20.290195 h 16.22358 v 16.223586 h -16.22358 z" />
    <path
       id="rect291"
       style="fill-opacity:0;stroke:#000000;stroke-width:8;stroke-linecap:round;stroke-linejoin:round;stroke-miterlimit:6;stroke-dasharray:none;paint-order:stroke fill markers"
       d="M 54.288628,20.290195 H 70.512213 V 36.513781 H 54.288628 Z" />
    <path
       id="rect291-3"
       style="fill-opacity:0;stroke:#000000;stroke-width:8;stroke-linecap:round;stroke-linejoin:round;stroke-miterlimit:6;stroke-dasharray:none;paint-order:stroke fill markers"
       d="m 122.0322,20.290195 h 16.22359 V 36.513781 H 122.0322 Z" />
    <g
       id="g499"
       transform="matrix(0.8258926,0,0,0.8258926,31.773744,-3.7523925)"
       style="stroke-width:9.68649;stroke-dasharray:none">
      <g
         id="g491"
         style="stroke-width:9.68649;stroke-dasharray:none">
        <path
           style="display:inline;fill:none;stroke:#000000;stroke-width:9.68649;stroke-linecap:round;stroke-linejoin:round;stroke-miterlimit:57.5;stroke-dasharray:none;paint-order:stroke markers fill"
           d="M 104.61579,139.58162 A 27.9706,27.9706 0 0 1 73.836909,147.23469 27.9706,27.9706 0 0 1 55.696329,121.21798 27.9706,27.9706 0 0 1 73.517458,94.983016 27.9706,27.9706 0 0 1 104.38722,102.2588"
           id="path150" />
        <g
           id="g485"
           style="stroke-width:9.68649;stroke-dasharray:none">
          <path
             style="display:inline;fill:none;stroke:#000000;stroke-width:9.68649;stroke-linecap:round;stroke-linejoin:round;stroke-miterlimit:57.5;stroke-dasharray:none;paint-order:stroke markers fill"
             d="M 121.79182,154.31839 A 51.201751,50.805879 0 0 1 65.449929,168.21867 51.201751,50.805879 0 0 1 32.242802,120.96393 51.201751,50.805879 0 0 1 64.865415,73.30988 51.201751,50.805879 0 0 1 121.37461,86.525811"
             id="path148" />
          <path
             style="fill:none;stroke:#000000;stroke-width:9.68649;stroke-linecap:round;stroke-linejoin:round;stroke-miterlimit:57.5;stroke-dasharray:none;paint-order:stroke markers fill"
             d="m 121.39457,86.55335 -17.02732,15.68893"
             id="path152" />
        </g>
      </g>
      <path
         style="display:inline;fill:none;stroke:#000000;stroke-width:9.68649;stroke-linecap:round;stroke-linejoin:round;stroke-miterlimit:57.5;stroke-dasharray:none;paint-order:stroke markers fill"
         d="m 104.57035,139.60365 17.19324,14.64589"
         id="path154" />
    </g>
  </g>
</svg>

<svg width="192" height="192" viewBox="0 0 192 192" xmlns="http://www.w3.org/2000/svg"><path style="fill-opacity:0;stroke:#000;stroke-width:8;stroke-linecap:round;stroke-linejoin:round;stroke-miterlimit:6;paint-order:stroke fill markers;stroke-dasharray:none" d="M88.107 155.634h16.224v16.224H88.107Zm67.108 0h16.223v16.224h-16.223zm-33.53 0h16.224v16.224h-16.224Zm33.53-33.664h16.223v16.223h-16.223zm-33.53 0h16.224v16.223h-16.224ZM20.898 155.635h16.224v16.223H20.898Zm0-67.68h16.224v16.224H20.898Zm0 34.015h16.224v16.223H20.898Zm33.578 0H70.7v16.223H54.476ZM20.898 54.09h16.224v16.224H20.898Zm33.578 0H70.7v16.224H54.476Zm33.631 0h16.224v16.224H88.107Zm33.53 33.865h16.223v16.224h-16.223Zm-33.53 0h16.224v16.224H88.107Zm67.108-33.865h16.223v16.224h-16.223zm-33.53 0h16.224v16.224h-16.224Zm33.877-33.8h16.223v16.224h-16.223zm-101.273 0h16.223v16.224H54.29Zm67.743 0h16.224v16.224h-16.224Z" fill="none"/></svg>
